X:165 
T:Old Concertina* (reel), The 
B:CRE3.115 (gan ainm)
F:file ID: cre.3/165old_c
R:reel
L:1/8
Q:180
M:C
K:D
Bee2 Bcdc|B/c/B AF E2FA|Bee2 Bcdc|B/c/B AF D2FA :|
Beec d2ef|edBc dBBA|Beec def2|edBc d2ed|
Beec d2ef|edBc dBcd|g3e fgfe|dBBA dfed||

%%%

